X: 6004
T: Canoe In The Clouds
R: jig
M: 6/8
K: Gmajor
|:FDD ~F3|BAG ~A3|BEE GB/c/d|B3 BAG|
ADD ~F3|BAG ~A3|EFG BAG|1 FEF GFE:|2 FEF G3||
|:~F3 dcB|dcB ABc|dGG dcB|~G3 GFE|
~F3 Bcd|edc Bde|~f3 dcB|1 GFG BAG:|2 ~G3 G3||

